!!!COM: Music21
!!!OTL: strathspey_Máolisse
!!!OMV: strathspey_Máolisse
**kern
*clefG2
*k[f#c#]
*M4/4
=1
8d
=||
8.eL
16bJk
8.aL
16gJk
16f#KL
8.aJ
8.dL
16f#Jk
=
8.eL
16bJk
8.aL
16ddJk
16bKL
8.aJ
8.f#L
16dJk
=
8.eL
16bJk
8.aL
16gJk
16f#KL
8.aJ
8.bL
16cc#Jk
=
16ddKL
8.bJ
8.aL
16f#Jk
16f#KL
8.eJ
8.f#L
16dJk
!!linebreak:original
=||
8.eL
16bJk
8.aL
16gJk
16f#KL
8.aJ
8.dL
16f#Jk
=
8.eL
16bJk
8.aL
16ddJk
16bKL
8.aJ
8.f#L
16dJk
=
8.eL
16bJk
8.aL
16gJk
16f#KL
8.aJ
8.bL
16cc#Jk
=
16ddKL
8.bJ
8.aL
16f#Jk
16f#KL
8.eJ
12f#L
12g
12aJ
!!linebreak:original
=||
16bKL
8.eeJ
8.ff#L
16ggJk
16ff#KL
8.ddJ
8.bL
16aJk
=
16bKL
8.eeJ
8.ddL
16eeJk
4ff#
12ggL
12ff#
12ddJ
=
16bKL
8.eeJ
8.ff#L
16ggJk
16ff#KL
8.ddJ
8.bL
16ccnJk
=
16bKL
8.aJ
8.f#L
16dJk
16f#KL
8.eJ
12f#L
12g
12aJ
!!linebreak:original
=||
*M4/4
8d
=||
8.eL
16bJk
8.aL
16gJk
16f#KL
8.aJ
8.dL
16f#Jk
=
8.eL
16bJk
8.aL
16ddJk
16bKL
8.aJ
8.f#L
16dJk
=
8.eL
16bJk
8.aL
16gJk
16f#KL
8.aJ
8.bL
16cc#Jk
=
16ddKL
8.bJ
8.aL
16f#Jk
16f#KL
8.eJ
8.f#L
16dJk
!!linebreak:original
=||
8.eL
16bJk
8.aL
16gJk
16f#KL
8.aJ
8.dL
16f#Jk
=
8.eL
16bJk
8.aL
16ddJk
16bKL
8.aJ
8.f#L
16dJk
=
8.eL
16bJk
8.aL
16gJk
16f#KL
8.aJ
8.bL
16cc#Jk
=
16ddKL
8.bJ
8.aL
16f#Jk
16f#KL
8.eJ
12f#L
12g
12aJ
!!linebreak:original
=||
16bKL
8.eeJ
8.ff#L
16ggJk
16ff#KL
8.ddJ
8.bL
16aJk
=
16bKL
8.eeJ
8.ddL
16eeJk
4ff#
12ggL
12ff#
12ddJ
=
16bKL
8.eeJ
8.ff#L
16ggJk
16ff#KL
8.ddJ
8.bL
16ccnJk
=
16bKL
8.aJ
8.f#L
16ddJk
16f#KL
8.eJ
4e
=||
*-
